X:1
T:Repose (Van Vleck), LM
T:Repose (Van Vleck), LM
T:F. J. Van Vleck, 1891
T:Public Domain Courtesy of the Cyber Hymnal™
C:F. J. Van Vleck, 1891
Z:Public Domain
Z:Courtesy of the Cyber Hymnal™
%%score ( 1 2 ) ( 3 4 )
L:1/8
Q:1/4=93
M:4/4
K:Db
V:1 treble 
V:2 treble 
V:3 bass 
V:4 bass 
V:1
 [FA] | [FA]2!<(! (3(=Gc!<)!!>(!B) [FA]2 [DF]2!>)! | [Fd]2 (cB) ([GB]2 [FA]2) | %3
 [EG]2 [=DF][EG]!>(! [Ac]3 [GB]!>)! | [FA]3 [CE] [CG]2 [DF]2 | [FA]2 [=E=G][EA] [DB]3 [DF] | %6
 [FA]2!<(! [EG][=DF]!<)!!>(! ([FA]2 [EG]2)!>)! | [EG]2 !>![Ac]!>![GB] [FA]3 [=E=G] | %8
 [EG]2 [CE]2 D2 z |] %9
V:2
 x | x2 =E2 x4 | x2 G2 x4 | x8 | x8 | x8 | x8 | x8 | x4 D2 x |] %9
V:3
 [D,A,] | [D,A,]2 [D,B,]2 [D,A,]2 [D,A,]2 | [D,A,]2 (B,C) [D,D]4 | %3
 A,2 [E,A,][C,A,] [A,,A,]3 [B,,A,] | [C,A,]2 [A,,A,]2 [D,A,]4 | %5
 [D,A,]2 [D,B,][_C,A,] [B,,F,]3 [B,,B,] | [D,B,]2 [=D,B,]2 [E,B,]4 | %7
 [E,B,]2 [G,B,][G,C] [A,D]2 [A,D]2 | [A,C]2 [A,,G,]2 [D,F,]2 z |] %9
V:4
 x | x8 | x2 G,2 x4 | A,2 x6 | x8 | x8 | x8 | x8 | x7 |] %9

